X: 5
T: The Tap Room
R: reel
M: 4/4
L: 1/8
K: Edor
EGBd cABc|d2AF DEED|EGBd cABc|1 dBAd BEED:|2 dBAd BEEA||Beed egfe|defg afed|Beed egfe|dBAd BEEA|Beed egfe|defg a2fa|bgeg ~f3e|dBAd BEED||


Tune 711	Setting 711

